app/images/second-bg.svg

<svg width="1595" height="1633" fill="#f5eee8" xmlns="http://www.w3.org/2000/svg"><path fill-rule="evenodd" clip-rule="evenodd" d="M1627.13 806.332c-38.11-65.898-88.47-117.692-145.78-155.493-16.92 30.785-37.09 59.294-59.94 85.219 21.36 23.427 41.54 50.224 60.17 80.454-73.93 119.944-172.05 186.148-272.75 198.968-36.15-52.029-82.82-96.863-137.74-130.763 64.53-1.895 127.36-17.434 184.7-44.413 35.07 26.67 64.72 61.776 87.33 104.555 19.34-13.588 38.12-29.603 56.1-48.067-29.28-31.205-62.71-58.169-99.08-80.264 130.74-79.392 223.33-221.986 223.48-396.507v-11.765l-10.19-5.875c-65.95-38.007-135.45-57.684-203.99-61.767.73 35.129-2.48 69.901-9.31 103.77 30.22 9.609 61.1 22.722 92.34 39.593-4.05 140.842-55.92 247.237-136.73 308.679-57.31-26.971-120.15-42.47-184.66-44.373 54.94-33.9 101.58-78.781 137.75-130.805 43.71 5.557 86.93 21.136 127.91 46.886 9.95-21.437 18.21-44.69 24.56-69.68-40.97-12.383-83.4-19.011-125.94-19.962 73.53-134.127 82.42-303.915-4.72-455.127l-5.87-10.195-11.77.007c-76.13.064-146.16 17.759-207.55 48.504 18.2 30.056 32.81 61.776 43.84 94.519 30.96-6.787 64.26-10.87 99.76-11.884 66.91 123.995 75.19 242.075 35.93 335.69-63.22 5.304-125.48 23.348-182.36 54.03 30.68-56.86 48.69-119.048 54.01-182.235 40.67-17.077 85.94-25.219 134.35-23.404-2.09-23.546-6.58-47.814-13.57-72.621-41.68 9.768-81.75 25.243-119.08 45.69-3.37-152.933-80.553-304.414-231.623-391.805L816.52 0l-10.18 5.89C740.442 44.01 688.648 94.36 650.847 151.673c30.785 16.934 59.294 37.103 85.219 59.944 23.427-21.358 50.224-41.543 80.454-60.174 119.944 73.929 186.15 172.055 198.96 272.749-52.021 36.152-96.855 82.825-130.763 137.743-1.895-64.527-17.434-127.365-44.405-184.701 26.67-35.073 61.775-64.716 104.555-87.327-13.588-19.345-29.603-38.118-48.067-56.115-31.205 29.294-58.161 62.719-80.264 99.093-79.392-130.75-221.986-223.334-396.507-223.477l-11.765-.007-5.875 10.195c-38.007 65.962-57.692 135.459-61.767 203.989 35.129-.729 69.901 2.482 103.77 9.3 9.609-30.214 22.722-61.086 39.593-92.338 140.842 4.051 247.237 55.924 308.679 136.727-26.979 57.32-42.47 120.158-44.373 184.669-33.901-54.934-78.781-101.583-130.805-137.751 5.565-43.707 21.144-86.931 46.886-127.903-21.445-9.958-44.698-18.211-69.679-24.561-12.384 40.964-19.012 83.403-19.971 125.945-134.128-73.533-303.915-82.42-455.127 4.709l-10.196 5.875.008 11.765c.064 76.126 17.767 146.154 48.504 207.549 30.056-18.195 61.776-32.798 94.519-43.826-6.787-30.967-10.87-64.265-11.892-99.759 124.003-66.913 242.075-75.19 335.69-35.938 5.304 63.218 23.348 125.478 54.03 182.361-56.86-30.673-119.04-48.686-182.227-54.006-17.077-40.671-25.219-85.94-23.404-134.349-23.546 2.093-47.814 6.581-72.621 13.573 9.768 41.678 25.243 81.746 45.69 119.072-152.933 3.377-304.422 80.557-391.805 231.626L0 816.504l5.89 10.188C44.01 892.59 94.353 944.384 151.673 982.177c16.926-30.785 37.103-59.294 59.944-85.219-21.358-23.427-41.543-50.224-60.174-80.454 73.929-119.944 172.047-186.151 272.749-198.963 36.152 52.024 82.825 96.857 137.743 130.766-64.527 1.895-127.365 17.433-184.701 44.405-35.073-26.67-64.716-61.776-87.327-104.556-19.345 13.589-38.118 29.604-56.107 48.068 29.294 31.205 62.719 58.161 99.085 80.264-130.75 79.4-223.334 221.992-223.485 396.512l-.008 11.76 10.196 5.87c65.962 38.01 135.459 57.69 203.997 61.77-.737-35.13 2.482-69.9 9.3-103.78-30.214-9.6-61.086-22.72-92.339-39.58 4.052-140.84 55.925-247.246 136.728-308.68 57.32 26.971 120.158 42.462 184.669 44.373-54.934 33.9-101.583 78.781-137.751 130.807-43.715-5.56-86.939-21.138-127.911-46.888-9.958 21.437-18.211 44.698-24.561 69.678 40.964 12.39 83.403 19.01 125.945 19.97-73.533 134.13-82.42 303.92 4.709 455.12l5.875 10.2 11.765-.01c76.134-.06 146.154-17.77 207.549-48.51-18.195-30.05-32.798-61.78-43.826-94.52-30.967 6.78-64.265 10.87-99.759 11.89-66.913-124-75.19-242.08-35.93-335.69 63.218-5.3 125.47-23.35 182.354-54.03-30.674 56.86-48.687 119.04-54.007 182.23-40.663 17.07-85.94 25.22-134.341 23.39 2.093 23.56 6.581 47.82 13.573 72.63 41.678-9.77 81.746-25.24 119.072-45.7 3.377 152.94 80.565 304.42 231.626 391.81l10.18 5.89 10.187-5.89c65.899-38.12 117.693-88.46 155.486-145.78-30.785-16.94-59.294-37.11-85.219-59.95-23.427 21.36-50.224 41.54-80.454 60.18-119.944-73.93-186.151-172.05-198.963-272.75 52.024-36.15 96.857-82.83 130.766-137.74 1.894 64.53 17.433 127.36 44.405 184.7-26.67 35.08-61.776 64.72-104.556 87.33 13.589 19.35 29.604 38.12 48.068 56.11 31.205-29.29 58.161-62.72 80.264-99.09 79.392 130.75 221.992 223.34 396.502 223.48l11.77.01 5.87-10.2c38.01-65.95 57.7-135.45 61.77-203.99-35.13.74-69.9-2.48-103.77-9.3-9.61 30.22-22.72 61.09-39.59 92.34-140.84-4.05-247.246-55.92-308.681-136.73 26.972-57.31 42.471-120.15 44.374-184.66 33.9 54.94 78.781 101.58 130.807 137.75-5.57 43.71-21.146 86.94-46.888 127.9 21.445 9.97 44.698 18.21 69.678 24.56 12.38-40.96 19.01-83.4 19.97-125.94 134.13 73.53 303.92 82.42 455.12-4.71l10.2-5.88-.01-11.76c-.06-76.13-17.76-146.16-48.51-207.55-30.06 18.2-61.77 32.8-94.51 43.83 6.77 30.96 10.87 64.26 11.88 99.76-123.99 66.91-242.08 75.18-335.69 35.93-5.3-63.22-23.35-125.47-54.03-182.36 56.86 30.67 119.05 48.69 182.23 54.01 17.07 40.67 25.22 85.94 23.4 134.34 23.55-2.09 47.81-6.58 72.62-13.57-9.77-41.68-25.24-81.74-45.69-119.07 152.93-3.39 304.42-80.557 391.8-231.626l5.89-10.188-5.87-10.164Zm-408.17 10.18c-69.14 37.492-154.17 46.744-246.368 22.603-8.428-2.735-17.006-5.209-25.679-7.468a489.052 489.052 0 0 1-23.245-8.198c-9.776 1.934-19.725 3.496-29.754 4.844a76.85 76.85 0 0 0 .705-6.509c18.576-8.364 36.961-15.412 55.116-21.184 7.373-1.966 14.683-4.059 21.874-6.374 92.571-24.474 177.971-15.333 247.351 22.286Zm-53.92-201.215c-41.13 67.04-110.15 117.566-202.057 142.753-8.673 1.848-17.331 3.988-25.972 6.366a489.264 489.264 0 0 1-24.237 4.52c-7.492 6.564-15.317 12.883-23.316 19.059a78 78 0 0 0-2.656-5.986c12.947-17.981 26.48-34.511 40.528-49.582 3.98-4.067 8.055-8.071 11.861-12.257 68.039-67.801 146.769-102.764 225.849-104.873Zm-147.3-147.295c-2.09 78.623-36.61 156.896-103.626 224.666a458.524 458.524 0 0 0-19.265 18.464 502.34 502.34 0 0 1-18.75 16.054c-3.203 9.427-6.826 18.814-10.663 28.161-1.713-1.372-3.465-2.704-5.288-3.932 2.045-20.28 5.145-39.744 9.236-58.359 1.951-7.27 3.774-14.548 5.344-21.842 25.076-92.473 75.705-161.923 143.012-203.212Zm-201.212-53.911c37.492 69.133 46.736 154.169 22.595 246.365-2.736 8.427-5.209 16.99-7.469 25.663a494.188 494.188 0 0 1-8.205 23.253c1.942 9.775 3.496 19.725 4.852 29.762a80.287 80.287 0 0 0-6.509-.714c-8.388-18.623-15.452-37.063-21.231-55.266-1.943-7.254-3.996-14.445-6.271-21.525-24.522-92.639-15.413-178.12 22.238-247.538Zm-201.207 53.911c67.032 41.123 117.558 110.137 142.745 202.047a449.22 449.22 0 0 0 6.374 25.98 489.443 489.443 0 0 1 4.519 24.236c6.557 7.492 12.876 15.317 19.059 23.317a78.868 78.868 0 0 0-5.993 2.648c-17.989-12.947-34.519-26.488-49.59-40.537-4.044-3.964-8.039-8.015-12.202-11.797C652.401 625.842 617.43 547.1 615.321 468.002ZM468.018 615.297c78.599 2.094 156.857 36.596 224.618 103.573a454.235 454.235 0 0 0 18.567 19.376 493.018 493.018 0 0 1 16.007 18.694c9.419 3.203 18.798 6.818 28.145 10.656-1.372 1.712-2.704 3.464-3.933 5.288-20.24-2.038-39.656-5.13-58.247-9.205-7.341-1.974-14.699-3.813-22.056-5.407-92.425-25.084-161.828-75.697-203.101-142.975Zm-53.911 201.215c69.141-37.492 154.193-46.744 246.412-22.587 8.404 2.727 16.943 5.193 25.584 7.444a491.635 491.635 0 0 1 23.293 8.222c9.775-1.943 19.717-3.496 29.738-4.852a80.043 80.043 0 0 0-.714 6.517c-18.599 8.372-37.008 15.428-55.179 21.199-7.294 1.95-14.532 4.02-21.659 6.311-92.624 24.506-178.073 15.388-247.475-22.254Zm53.911 201.218c41.123-67.035 110.136-117.561 202.047-142.749a450.468 450.468 0 0 0 25.988-6.374 492.027 492.027 0 0 1 24.228-4.519c7.484-6.556 15.301-12.867 23.301-19.043a77.954 77.954 0 0 0 2.655 5.994c-12.93 17.965-26.448 34.471-40.472 49.518-4.004 4.099-8.111 8.127-11.932 12.344-68.039 67.769-146.741 102.709-225.815 104.829Zm147.303 147.29c2.093-78.6 36.588-156.85 103.565-224.608a454.232 454.232 0 0 0 19.384-18.576 494.853 494.853 0 0 1 18.694-16.007c3.203-9.418 6.818-18.789 10.656-28.136 1.712 1.379 3.464 2.703 5.295 3.932-2.045 20.241-5.129 39.664-9.212 58.248-1.974 7.341-3.805 14.682-5.399 22.04-25.084 92.427-75.705 161.837-142.983 203.107Zm201.207 53.91c-37.492-69.15-46.744-154.19-22.587-246.409a459.096 459.096 0 0 0 7.444-25.584 485.906 485.906 0 0 1 8.222-23.293c-1.943-9.767-3.497-19.709-4.852-29.738 2.148.325 4.312.563 6.516.713 8.364 18.568 15.405 36.945 21.168 55.084 1.974 7.381 4.067 14.699 6.382 21.898 24.466 92.559 15.333 177.959-22.293 247.329Zm201.212-53.91c-67.037-41.13-117.571-110.15-142.759-202.077a453.898 453.898 0 0 0-6.358-25.924 498.427 498.427 0 0 1-4.527-24.268c-6.556-7.484-12.875-15.309-19.051-23.301a79.539 79.539 0 0 0 5.994-2.656c17.965 12.939 34.487 26.464 49.55 40.489 4.091 4.003 8.118 8.095 12.32 11.924 67.777 68.043 102.721 146.753 104.831 225.813Zm-77.344-250.89a451.169 451.169 0 0 0-18.52-19.328 494.106 494.106 0 0 1-16.023-18.719c-9.418-3.202-18.797-6.818-28.144-10.663 1.371-1.712 2.703-3.464 3.932-5.288 20.28 2.046 39.736 5.137 58.351 9.228 7.27 1.951 14.532 3.774 21.818 5.344 92.49 25.076 161.94 75.713 203.24 143.026-78.63-2.1-156.88-36.608-224.654-103.6Z"/></svg>

<svg width="1595" height="1633" viewBox="0 0 1595 1633" fill="#f5eee8" xmlns="http://www.w3.org/2000/svg">
<path fill-rule="evenodd" clip-rule="evenodd" d="M1627.13 806.332C1589.02 740.434 1538.66 688.64 1481.35 650.839C1464.43 681.624 1444.26 710.133 1421.41 736.058C1442.77 759.485 1462.95 786.282 1481.58 816.512C1407.65 936.456 1309.53 1002.66 1208.83 1015.48C1172.68 963.451 1126.01 918.617 1071.09 884.717C1135.62 882.822 1198.45 867.283 1255.79 840.304C1290.86 866.974 1320.51 902.08 1343.12 944.859C1362.46 931.271 1381.24 915.256 1399.22 896.792C1369.94 865.587 1336.51 838.623 1300.14 816.528C1430.88 737.136 1523.47 594.542 1523.62 420.021L1523.62 408.256L1513.43 402.381C1447.48 364.374 1377.98 344.697 1309.44 340.614C1310.17 375.743 1306.96 410.515 1300.13 444.384C1330.35 453.993 1361.23 467.106 1392.47 483.977C1388.42 624.819 1336.55 731.214 1255.74 792.656C1198.43 765.685 1135.59 750.186 1071.08 748.283C1126.02 714.383 1172.66 669.502 1208.83 617.478C1252.54 623.035 1295.76 638.614 1336.74 664.364C1346.69 642.927 1354.95 619.674 1361.3 594.684C1320.33 582.301 1277.9 575.673 1235.36 574.722C1308.89 440.595 1317.78 270.807 1230.64 119.595L1224.77 109.4L1213 109.407C1136.87 109.471 1066.84 127.166 1005.45 157.911C1023.65 187.967 1038.26 219.687 1049.29 252.43C1080.25 245.643 1113.55 241.56 1149.05 240.546C1215.96 364.541 1224.24 482.621 1184.98 576.236C1121.76 581.54 1059.5 599.584 1002.62 630.266C1033.3 573.406 1051.31 511.218 1056.63 448.031C1097.3 430.954 1142.57 422.812 1190.98 424.627C1188.89 401.081 1184.4 376.813 1177.41 352.006C1135.73 361.774 1095.66 377.249 1058.33 397.696C1054.96 244.763 977.777 93.2818 826.707 5.89065L816.52 0L806.34 5.89065C740.442 44.0088 688.648 94.36 650.847 151.672C681.632 168.606 710.141 188.775 736.066 211.616C759.493 190.258 786.29 170.073 816.52 151.442C936.464 225.371 1002.67 323.497 1015.48 424.191C963.459 460.343 918.625 507.016 884.717 561.934C882.822 497.407 867.283 434.569 840.312 377.233C866.982 342.16 902.087 312.517 944.867 289.906C931.279 270.561 915.264 251.788 896.8 233.791C865.595 263.085 838.639 296.51 816.536 332.884C737.144 202.134 594.55 109.55 420.029 109.407L408.264 109.4L402.389 119.595C364.382 185.557 344.697 255.054 340.622 323.584C375.751 322.855 410.523 326.066 444.392 332.884C454.001 302.67 467.114 271.798 483.985 240.546C624.827 244.597 731.222 296.47 792.664 377.273C765.685 434.593 750.194 497.431 748.291 561.942C714.39 507.008 669.51 460.359 617.486 424.191C623.051 380.484 638.63 337.26 664.372 296.288C642.927 286.33 619.674 278.077 594.693 271.727C582.309 312.691 575.681 355.13 574.722 397.672C440.594 324.139 270.807 315.252 119.595 402.381L109.399 408.256L109.407 420.021C109.471 496.147 127.174 566.175 157.911 627.57C187.967 609.375 219.687 594.772 252.43 583.744C245.643 552.777 241.56 519.479 240.538 483.985C364.541 417.072 482.613 408.795 576.228 448.047C581.532 511.265 599.576 573.525 630.258 630.408C573.398 599.735 511.218 581.722 448.031 576.402C430.954 535.731 422.812 490.462 424.627 442.053C401.081 444.146 376.813 448.634 352.006 455.626C361.774 497.304 377.249 537.372 397.696 574.698C244.763 578.075 93.2737 655.255 5.89053 806.324L0 816.504L5.89053 826.692C44.0087 892.59 94.3519 944.384 151.672 982.177C168.598 951.392 188.775 922.883 211.616 896.958C190.258 873.531 170.073 846.734 151.442 816.504C225.371 696.56 323.489 630.353 424.191 617.541C460.343 669.565 507.016 714.398 561.934 748.307C497.407 750.202 434.569 765.74 377.233 792.712C342.16 766.042 312.517 730.936 289.906 688.156C270.561 701.745 251.788 717.76 233.799 736.224C263.093 767.429 296.518 794.385 332.884 816.488C202.134 895.888 109.55 1038.48 109.399 1213L109.391 1224.76L119.587 1230.63C185.549 1268.64 255.046 1288.32 323.584 1292.4C322.847 1257.27 326.066 1222.5 332.884 1188.62C302.67 1179.02 271.798 1165.9 240.545 1149.04C244.597 1008.2 296.47 901.794 377.273 840.36C434.593 867.331 497.431 882.822 561.942 884.733C507.008 918.633 460.359 963.514 424.191 1015.54C380.476 1009.98 337.252 994.402 296.28 968.652C286.322 990.089 278.069 1013.35 271.719 1038.33C312.683 1050.72 355.122 1057.34 397.664 1058.3C324.131 1192.43 315.244 1362.22 402.373 1513.42L408.248 1523.62L420.013 1523.61C496.147 1523.55 566.167 1505.84 627.562 1475.1C609.367 1445.05 594.764 1413.32 583.736 1380.58C552.769 1387.36 519.471 1391.45 483.977 1392.47C417.064 1268.47 408.787 1150.39 448.047 1056.78C511.265 1051.48 573.517 1033.43 630.401 1002.75C599.727 1059.61 581.714 1121.79 576.394 1184.98C535.731 1202.05 490.454 1210.2 442.053 1208.37C444.146 1231.93 448.634 1256.19 455.626 1281C497.304 1271.23 537.372 1255.76 574.698 1235.3C578.075 1388.24 655.263 1539.72 806.324 1627.11L816.504 1633L826.691 1627.11C892.59 1588.99 944.384 1538.65 982.177 1481.33C951.392 1464.39 922.883 1444.22 896.958 1421.38C873.531 1442.74 846.734 1462.92 816.504 1481.56C696.56 1407.63 630.353 1309.51 617.541 1208.81C669.565 1172.66 714.398 1125.98 748.307 1071.07C750.201 1135.6 765.74 1198.43 792.712 1255.77C766.042 1290.85 730.936 1320.49 688.156 1343.1C701.745 1362.45 717.76 1381.22 736.224 1399.21C767.429 1369.92 794.385 1336.49 816.488 1300.12C895.88 1430.87 1038.48 1523.46 1212.99 1523.6L1224.76 1523.61L1230.63 1513.41C1268.64 1447.46 1288.33 1377.96 1292.4 1309.42C1257.27 1310.16 1222.5 1306.94 1188.63 1300.12C1179.02 1330.34 1165.91 1361.21 1149.04 1392.46C1008.2 1388.41 901.794 1336.54 840.359 1255.73C867.331 1198.42 882.83 1135.58 884.733 1071.07C918.633 1126.01 963.514 1172.65 1015.54 1208.82C1009.97 1252.53 994.394 1295.76 968.652 1336.72C990.097 1346.69 1013.35 1354.93 1038.33 1361.28C1050.71 1320.32 1057.34 1277.88 1058.3 1235.34C1192.43 1308.87 1362.22 1317.76 1513.42 1230.63L1523.62 1224.75L1523.61 1212.99C1523.55 1136.86 1505.85 1066.83 1475.1 1005.44C1445.04 1023.64 1413.33 1038.24 1380.59 1049.27C1387.36 1080.23 1391.46 1113.53 1392.47 1149.03C1268.48 1215.94 1150.39 1224.21 1056.78 1184.96C1051.48 1121.74 1033.43 1059.49 1002.75 1002.6C1059.61 1033.27 1121.8 1051.29 1184.98 1056.61C1202.05 1097.28 1210.2 1142.55 1208.38 1190.95C1231.93 1188.86 1256.19 1184.37 1281 1177.38C1271.23 1135.7 1255.76 1095.64 1235.31 1058.31C1388.24 1054.92 1539.73 977.753 1627.11 826.684L1633 816.496L1627.13 806.332ZM1218.96 816.512C1149.82 854.004 1064.79 863.256 972.592 839.115C964.164 836.38 955.586 833.906 946.913 831.647C939.207 829.149 931.453 826.414 923.668 823.449C913.892 825.383 903.943 826.945 893.914 828.293C894.239 826.144 894.476 823.98 894.619 821.784C913.195 813.42 931.58 806.372 949.735 800.6C957.108 798.634 964.418 796.541 971.609 794.226C1064.18 769.752 1149.58 778.893 1218.96 816.512ZM1165.04 615.297C1123.91 682.337 1054.89 732.863 962.983 758.05C954.31 759.898 945.652 762.038 937.011 764.416C929.083 766.105 921.004 767.612 912.774 768.936C905.282 775.5 897.457 781.819 889.458 787.995C888.657 785.949 887.761 783.959 886.802 782.009C899.749 764.028 913.282 747.498 927.33 732.427C931.31 728.36 935.385 724.356 939.191 720.17C1007.23 652.369 1085.96 617.406 1165.04 615.297ZM1017.74 468.002C1015.65 546.625 981.13 624.898 914.114 692.668C907.55 698.598 901.128 704.758 894.849 711.132C888.816 716.563 882.568 721.914 876.099 727.186C872.896 736.613 869.273 746 865.436 755.347C863.723 753.975 861.971 752.643 860.148 751.415C862.193 731.135 865.293 711.671 869.384 693.056C871.335 685.786 873.158 678.508 874.728 671.214C899.804 578.741 950.433 509.291 1017.74 468.002ZM816.528 414.091C854.02 483.224 863.264 568.26 839.123 660.456C836.387 668.883 833.914 677.446 831.654 686.119C829.149 693.833 826.414 701.587 823.449 709.372C825.391 719.147 826.945 729.097 828.301 739.134C826.152 738.809 823.988 738.571 821.792 738.42C813.404 719.797 806.34 701.357 800.561 683.154C798.618 675.9 796.565 668.709 794.29 661.629C769.768 568.99 778.877 483.509 816.528 414.091ZM615.321 468.002C682.353 509.125 732.879 578.139 758.066 670.049C759.913 678.722 762.054 687.388 764.44 696.029C766.129 703.957 767.635 712.036 768.959 720.265C775.516 727.757 781.835 735.582 788.018 743.582C785.973 744.382 783.983 745.27 782.025 746.23C764.036 733.283 747.506 719.742 732.435 705.693C728.391 701.729 724.396 697.678 720.233 693.896C652.401 625.842 617.43 547.1 615.321 468.002ZM468.018 615.297C546.617 617.391 624.875 651.893 692.636 718.87C698.59 725.474 704.79 731.927 711.203 738.246C716.618 744.255 721.954 750.487 727.21 756.94C736.629 760.143 746.008 763.758 755.355 767.596C753.983 769.308 752.651 771.06 751.422 772.884C731.182 770.846 711.766 767.754 693.175 763.679C685.834 761.705 678.476 759.866 671.119 758.272C578.694 733.188 509.291 682.575 468.018 615.297ZM414.107 816.512C483.248 779.02 568.3 769.768 660.519 793.925C668.923 796.652 677.462 799.118 686.103 801.369C693.825 803.875 701.594 806.618 709.396 809.591C719.171 807.648 729.113 806.095 739.134 804.739C738.809 806.887 738.571 809.052 738.42 811.256C719.821 819.628 701.412 826.684 683.241 832.455C675.947 834.405 668.709 836.475 661.582 838.766C568.958 863.272 483.509 854.154 414.107 816.512ZM468.018 1017.73C509.141 950.695 578.154 900.169 670.065 874.981C678.738 873.134 687.403 870.994 696.053 868.607C703.981 866.919 712.06 865.412 720.281 864.088C727.765 857.532 735.582 851.221 743.582 845.045C744.382 847.091 745.278 849.088 746.237 851.039C733.307 869.004 719.789 885.51 705.765 900.557C701.761 904.656 697.654 908.684 693.833 912.901C625.794 980.67 547.092 1015.61 468.018 1017.73ZM615.321 1165.02C617.414 1086.42 651.909 1008.17 718.886 940.412C725.498 934.45 731.951 928.25 738.27 921.836C744.279 916.422 750.511 911.086 756.964 905.829C760.167 896.411 763.782 887.04 767.62 877.693C769.332 879.072 771.084 880.396 772.915 881.625C770.87 901.866 767.786 921.289 763.703 939.873C761.729 947.214 759.898 954.555 758.304 961.913C733.22 1054.34 682.599 1123.75 615.321 1165.02ZM816.528 1218.93C779.036 1149.78 769.784 1064.74 793.941 972.521C796.66 964.117 799.134 955.578 801.385 946.937C803.89 939.207 806.633 931.445 809.607 923.644C807.664 913.877 806.11 903.935 804.755 893.906C806.903 894.231 809.067 894.469 811.271 894.619C819.635 913.187 826.676 931.564 832.439 949.703C834.413 957.084 836.506 964.402 838.821 971.601C863.287 1064.16 854.154 1149.56 816.528 1218.93ZM1017.74 1165.02C950.703 1123.89 900.169 1054.87 874.981 962.943C873.134 954.286 871.001 945.644 868.623 937.019C866.934 929.083 865.428 920.996 864.096 912.751C857.54 905.267 851.221 897.442 845.045 889.45C847.09 888.65 849.08 887.753 851.039 886.794C869.004 899.733 885.526 913.258 900.589 927.283C904.68 931.286 908.707 935.378 912.909 939.207C980.686 1007.25 1015.63 1085.96 1017.74 1165.02ZM940.396 914.13C934.45 907.534 928.266 901.096 921.876 894.802C916.453 888.776 911.11 882.545 905.853 876.083C896.435 872.881 887.056 869.265 877.709 865.42C879.08 863.708 880.412 861.956 881.641 860.132C901.921 862.178 921.377 865.269 939.992 869.36C947.262 871.311 954.524 873.134 961.81 874.704C1054.3 899.78 1123.75 950.417 1165.05 1017.73C1086.42 1015.63 1008.17 981.122 940.396 914.13Z" fill="#f5eee8"/>
</svg>
